components/ui-separator-icon/src/comma.svg

<svg width="16" height="16" viewBox="0 0 16 16" fill="none" xmlns="http://www.w3.org/2000/svg">
  <path fill-rule="evenodd" clip-rule="evenodd" d="M7.5 2.97455C5.84315 2.97455 4.5 4.31769 4.5 5.97455C4.5 7.57041 5.74635 8.87554 7.31841 8.96916L7.75064 8.9949L7.78693 9.42637C7.80094 9.59302 7.81738 9.75183 7.83386 9.91104L7.83563 9.92809C7.88703 10.4242 7.93881 10.9241 7.8802 11.508C7.85352 11.7738 7.80462 12.0526 7.72604 12.3551C8.20857 11.8175 8.71935 11.1088 9.1735 10.2992C9.94403 8.92551 10.5 7.3521 10.5 5.97455C10.5 4.31769 9.15685 2.97455 7.5 2.97455ZM3.5 5.97455C3.5 3.76541 5.29086 1.97455 7.5 1.97455C9.70914 1.97455 11.5 3.76541 11.5 5.97455C11.5 7.58943 10.8604 9.33595 10.0457 10.7884C9.2349 12.2338 8.19916 13.4788 7.32339 14.0502C7.05541 14.2251 6.71926 14.1905 6.50163 13.9732C6.30049 13.7725 6.25371 13.4713 6.36515 13.2135C6.7004 12.4381 6.83793 11.8791 6.8852 11.4081C6.93292 10.9327 6.892 10.524 6.83918 10.0141L6.83899 10.0122C6.8358 9.98135 6.83256 9.95012 6.82932 9.91851C4.9393 9.59932 3.5 7.95518 3.5 5.97455Z" fill="currentColor"/>
</svg>

<svg xmlns="http://www.w3.org/2000/svg" width="16" height="16" fill="none" viewBox="0 0 16 16">
  <path fill="currentColor" fill-rule="evenodd" d="M7.5 2.975a3 3 0 0 0-.182 5.994l.433.026.036.431c.014.167.03.326.047.485l.002.017c.051.496.103.996.044 1.58a5.554 5.554 0 0 1-.154.847A11.71 11.71 0 0 0 9.174 10.3c.77-1.373 1.326-2.947 1.326-4.324a3 3 0 0 0-3-3Zm-4 3a4 4 0 1 1 8 0c0 1.614-.64 3.361-1.454 4.813-.811 1.446-1.847 2.69-2.723 3.262a.649.649 0 0 1-.821-.077.685.685 0 0 1-.137-.76c.335-.775.473-1.334.52-1.805.048-.475.007-.884-.046-1.394v-.002l-.01-.093A4.001 4.001 0 0 1 3.5 5.975Z" clip-rule="evenodd"/>
</svg>
